build/svg/sw/res/sidebar/pageproppanel/formatnarrow_24x24.svg

<svg xmlns="http://www.w3.org/2000/svg" viewBox="0 0 24 24"><path d="M4 8c0-2 0-3 2-3h12c2 0 2 1 2 3v8c0 2 0 3-2 3H6c-2 0-2-1-2-3z" opacity=".6" stroke="#000" stroke-width="2" stroke-linejoin="round"/><path d="M4 8c0-2 0-3 2-3h12c2 0 2 1 2 3v8c0 2 0 3-2 3H6c-2 0-2-1-2-3z" fill="#fff"/><path d="M5 5v1H4v1h1v10H4v1h1v1h1v-1h12v1h1v-1h1v-1h-1V7h1V6h-1V5h-1v1H6V5zm1 2h12v10H6z" fill="#762572"/></svg>

<?xml version="1.0" encoding="UTF-8" standalone="no"?>
<svg
   xmlns:dc="http://purl.org/dc/elements/1.1/"
   xmlns:cc="http://creativecommons.org/ns#"
   xmlns:rdf="http://www.w3.org/1999/02/22-rdf-syntax-ns#"
   xmlns:svg="http://www.w3.org/2000/svg"
   xmlns="http://www.w3.org/2000/svg"
   xmlns:sodipodi="http://sodipodi.sourceforge.net/DTD/sodipodi-0.dtd"
   xmlns:inkscape="http://www.inkscape.org/namespaces/inkscape"
   viewBox="0 0 24 24"
   version="1.1"
   id="svg6"
   sodipodi:docname="formatnarrow_24x24.svg"
   inkscape:version="0.92.5 (2060ec1f9f, 2020-04-08)"
   inkscape:export-filename="/home/jupiter007/Libreoffice yaru theme fullcolor/build/sw/res/sidebar/pageproppanel/formatnarrow_24x24.png"
   inkscape:export-xdpi="95"
   inkscape:export-ydpi="95">
  <metadata
     id="metadata12">
    <rdf:RDF>
      <cc:Work
         rdf:about="">
        <dc:format>image/svg+xml</dc:format>
        <dc:type
           rdf:resource="http://purl.org/dc/dcmitype/StillImage" />
      </cc:Work>
    </rdf:RDF>
  </metadata>
  <defs
     id="defs10" />
  <sodipodi:namedview
     pagecolor="#ffffff"
     bordercolor="#666666"
     borderopacity="1"
     objecttolerance="10"
     gridtolerance="10"
     guidetolerance="10"
     inkscape:pageopacity="0"
     inkscape:pageshadow="2"
     inkscape:window-width="1920"
     inkscape:window-height="1011"
     id="namedview8"
     showgrid="true"
     inkscape:zoom="27.812867"
     inkscape:cx="9.0575143"
     inkscape:cy="9.3982372"
     inkscape:window-x="0"
     inkscape:window-y="32"
     inkscape:window-maximized="1"
     inkscape:current-layer="svg6">
    <inkscape:grid
       type="xygrid"
       id="grid830" />
  </sodipodi:namedview>
  <path
     sodipodi:nodetypes="cccccccccc"
     style="opacity:0.6;fill:#000000;stroke:#000000;stroke-width:2;stroke-linejoin:round;stroke-miterlimit:4;stroke-dasharray:none"
     id="path829"
     d="m 3.9999999,8 c 0,-1.9999999 0,-3 2,-3 H 18 c 2,0 2,1.0000001 2,3 v 8 c 0,2 0,3 -2,3 H 14.59375 5.9999999 c -2,0 -2,-1 -2,-3 z"
     inkscape:connector-curvature="0" />
  <path
     inkscape:connector-curvature="0"
     d="m 3.9999999,8 c 0,-1.9999999 0,-3 2,-3 H 18 c 2,0 2,1.0000001 2,3 v 8 c 0,2 0,3 -2,3 H 14.59375 5.9999999 c -2,0 -2,-1 -2,-3 z"
     id="path2"
     style="fill:#ffffff"
     sodipodi:nodetypes="cccccccccc" />
  <path
     d="M 5,5 V 6 H 4 V 7 H 5 V 17 H 4 v 1 h 1 v 1 h 1 v -1 h 12 v 1 h 1 v -1 h 1 V 17 H 19 V 7 h 1 V 6 H 19 V 5 H 18 V 6 H 6 V 5 Z M 6,7 H 18 V 17 H 6 Z"
     id="path4"
     inkscape:connector-curvature="0"
     style="fill:#762572"
     sodipodi:nodetypes="cccccccccccccccccccccccccccccccccc" />
</svg>
